X: 1
T: Ian and Judith Muir    [Bb]
C: Alistair Forbes
R: jig
S: RSCDS 50-7
Z: 2019 John Chambers <jc:trillian.mit.edu>
M: 6/8
L: 1/8
K: Bb
F/E/ |\
"Bb"DEF F2B | "Eb"EFG "Bb7"FGB | "Eb"GAB "Bb"B2d | "Cm7"cBA "F7"GFE |\
"Bb"DEF FBA | "Eb"GAB "Bb"F<BD | "Cm"EFG "F7"AGA | "Bb"B3 B2 :|
F |\
"Bb"d2e fed | "Cm"c2d "F7"edc | "Bb"dFf "Gm"dcB | "Cm"GcB "F7"AGF |\
"Bb"d2e fed | "Cm"c2d "F7"edc | "Cm"GcB "F7"AGA | "Bb"B3 B2 ||
F |\
"Bb"dFe "G7/B"fed | "Cm"cGd "F7"edc | "Bb"dFf "Gm"dcB | "C7"GcB "F7"AGF |\
"Bb"DEF FBA | "Eb"GAB "Bb7"F<BD | "Cm"EFG "F7"AGA | "Bb"B3 B2 |]
